X: 40151
T: Tim Fitzpatrick's
R: reel
M: 4/4
K: Dmajor
|:d2(3DDD EDB,D|d2ef gbag|fedc dgfe|dBB2AFFA|
d2(3DDD EDB,D|d2ef gbag|fedc dBAF|GFEG FDD2:|
|:df (3fff gfeg|fdad bdad|g2fg efge|dBB2 AFFA|
[1df (3fff gfeg|fdad bdad|fedc dBAF|GFEG FDD2:|
[2d2(3DDD EDB,D|d2ef gbag|fedc dBAF|GFEG FDD2||

